img/icon__advantages-2.svg

<svg width="60" height="60" viewBox="0 0 60 60" fill="none" xmlns="http://www.w3.org/2000/svg">
<path fill-rule="evenodd" clip-rule="evenodd" d="M5.0163 6.5625C4.38598 6.5625 3.875 7.07346 3.875 7.7038V44.2255C3.875 44.8559 4.38598 45.3668 5.0163 45.3668H22.8044L18.2392 49.9321H14.1467C13.5164 49.9321 13.0054 50.443 13.0054 51.0734C13.0054 51.7037 13.5164 52.2147 14.1467 52.2147H23.2772C23.9075 52.2147 24.4185 51.7037 24.4185 51.0734C24.4185 50.443 23.9075 49.9321 23.2772 49.9321H21.4673L26.0325 45.3668H34.2175L38.7827 49.9321H36.9728C36.3425 49.9321 35.8315 50.443 35.8315 51.0734C35.8315 51.7037 36.3425 52.2147 36.9728 52.2147H46.1033C46.7336 52.2147 47.2446 51.7037 47.2446 51.0734C47.2446 50.443 46.7336 49.9321 46.1033 49.9321H42.0108L37.4456 45.3668H55.2337C55.864 45.3668 56.375 44.8559 56.375 44.2255V7.7038C56.375 7.07346 55.864 6.5625 55.2337 6.5625H5.0163ZM6.15761 43.0842V8.84511H54.0924V43.0842H6.15761ZM30.125 31.6712C30.7553 31.6712 31.2663 31.1602 31.2663 30.5299C31.2663 29.8995 30.7553 29.3886 30.125 29.3886C29.4947 29.3886 28.9837 29.8995 28.9837 30.5299C28.9837 31.1602 29.4947 31.6712 30.125 31.6712ZM30.125 27.106C29.2559 27.106 28.4649 27.4283 27.8605 27.9616C27.388 28.3788 26.6667 28.3338 26.2497 27.8612C25.8326 27.3887 25.8775 26.6674 26.3501 26.2503C27.3554 25.363 28.6785 24.8234 30.125 24.8234C31.5715 24.8234 32.8947 25.363 33.9 26.2503C34.3726 26.6674 34.4176 27.3887 34.0004 27.8612C33.5833 28.3338 32.8621 28.3788 32.3895 27.9616C31.7853 27.4283 30.9941 27.106 30.125 27.106ZM24.3862 23.428C25.9546 22.1589 27.9496 21.3995 30.125 21.3995C32.3004 21.3995 34.2954 22.1589 35.8638 23.428C36.3538 23.8245 37.0725 23.7487 37.469 23.2586C37.8654 22.7687 37.7897 22.05 37.2997 21.6535C35.3398 20.0676 32.8419 19.1168 30.125 19.1168C27.4081 19.1168 24.9103 20.0676 22.9503 21.6535C22.4603 22.05 22.3846 22.7687 22.781 23.2586C23.1775 23.7487 23.8962 23.8245 24.3862 23.428Z" fill="#FF9494"/>
</svg>

<svg width="60" height="60" fill="none" xmlns="http://www.w3.org/2000/svg"><path fill-rule="evenodd" clip-rule="evenodd" d="M5.016 6.563c-.63 0-1.141.51-1.141 1.14v36.522c0 .63.511 1.142 1.141 1.142h17.788l-4.565 4.565h-4.092a1.141 1.141 0 100 2.283h9.13a1.141 1.141 0 000-2.283h-1.81l4.566-4.565h8.184l4.566 4.565h-1.81a1.141 1.141 0 100 2.283h9.13a1.141 1.141 0 000-2.283h-4.092l-4.565-4.565h17.788c.63 0 1.141-.511 1.141-1.142V7.704c0-.63-.511-1.141-1.141-1.141H5.016zm1.142 36.521V8.845h47.934v34.24H6.158zm23.967-11.413a1.141 1.141 0 100-2.282 1.141 1.141 0 000 2.282zm0-4.565c-.87 0-1.66.322-2.265.856a1.141 1.141 0 11-1.51-1.712 5.689 5.689 0 013.775-1.427c1.447 0 2.77.54 3.775 1.427a1.141 1.141 0 11-1.51 1.712 3.407 3.407 0 00-2.265-.856zm-5.739-3.678a9.088 9.088 0 015.739-2.029c2.175 0 4.17.76 5.739 2.029a1.141 1.141 0 001.436-1.774 11.37 11.37 0 00-7.175-2.537c-2.717 0-5.215.95-7.175 2.537a1.141 1.141 0 001.436 1.774z" fill="#FF9494"/></svg>
